img/icon-vk.svg

<svg width="32" height="32" viewBox="0 0 32 32" fill="none" xmlns="http://www.w3.org/2000/svg">
  <path
    d="M16.64 14.49C16.9652 14.4904 17.2875 14.4293 17.59 14.31C17.8645 14.2077 18.0922 14.0085 18.23 13.75C18.3343 13.4964 18.3854 13.2241 18.38 12.95C18.376 12.7057 18.3143 12.4659 18.2 12.25C18.0714 12.0066 17.8523 11.8235 17.59 11.74C17.2687 11.627 16.9306 11.5695 16.59 11.57H14.59V14.57H15.16C15.75 14.52 16.24 14.51 16.64 14.49Z"
    fill="white"/>
  <path
    d="M18.12 17.08C17.751 17.0101 17.3752 16.9832 17 17H14.61V20.5H17.06C17.4757 20.4953 17.8865 20.4104 18.27 20.25C18.591 20.1392 18.8632 19.9199 19.04 19.63C19.1865 19.3527 19.2621 19.0436 19.26 18.73C19.2753 18.3782 19.1848 18.0298 19 17.73C18.7922 17.4167 18.4806 17.1865 18.12 17.08Z"
    fill="white"/>
  <path
    d="M16 0C12.8355 0 9.74207 0.938384 7.11088 2.69649C4.4797 4.45459 2.42894 6.95345 1.21793 9.87706C0.0069325 12.8007 -0.309921 16.0177 0.307443 19.1214C0.924806 22.2251 2.44866 25.0761 4.6863 27.3137C6.92394 29.5513 9.77487 31.0752 12.8786 31.6926C15.9823 32.3099 19.1993 31.9931 22.1229 30.7821C25.0466 29.5711 27.5454 27.5203 29.3035 24.8891C31.0616 22.2579 32 19.1645 32 16C32 11.7565 30.3143 7.68687 27.3137 4.68629C24.3131 1.68571 20.2435 0 16 0ZM22.6 20.53C22.3376 21.056 21.9537 21.5119 21.48 21.86C20.9342 22.2714 20.3122 22.5705 19.65 22.74C18.8286 22.9383 17.9848 23.029 17.14 23.01H11V9H16.45C17.2781 8.9868 18.1063 9.02354 18.93 9.11C19.473 9.19401 19.9994 9.36273 20.49 9.61C20.9868 9.84615 21.4013 10.2258 21.68 10.7C21.9455 11.1728 22.0801 11.7079 22.07 12.25C22.0819 12.8916 21.8931 13.5209 21.53 14.05C21.1452 14.588 20.6142 15.0045 20 15.25V15.32C20.8272 15.4588 21.5898 15.8541 22.18 16.45C22.7295 17.0712 23.0163 17.8815 22.98 18.71C23.0043 19.3386 22.8738 19.9636 22.6 20.53Z"
    fill="white"/>
</svg>

<svg width="32" height="32" fill="none" xmlns="http://www.w3.org/2000/svg"><path d="M16.6 14.5c.4 0 .7 0 1-.2.3 0 .5-.3.6-.6l.2-.8c0-.2 0-.4-.2-.7a1 1 0 00-.6-.5 3 3 0 00-1-.1h-2v3h.6l1.4-.1zM18.1 17h-3.5v3.5h2.5c.4 0 .8 0 1.2-.3.3 0 .6-.3.7-.6.2-.2.3-.6.3-.9 0-.3-.1-.7-.3-1-.2-.3-.5-.5-.9-.6z" fill="#fff" fill-opacity=".8"/><path d="M16 0a16 16 0 100 32 16 16 0 000-32zm6.6 20.5c-.3.6-.6 1-1.1 1.4-.6.4-1.2.7-1.9.8-.8.2-1.6.3-2.5.3H11V9h5.4l2.5.1c.6 0 1.1.3 1.6.5s.9.6 1.2 1.1c.2.5.4 1 .4 1.6a3 3 0 01-.6 1.8c-.4.5-.9.9-1.5 1.2a4 4 0 012.2 1.1c.5.7.8 1.5.8 2.3 0 .6-.1 1.3-.4 1.8z" fill="#fff" fill-opacity=".8"/></svg>
